X:20
T:Pelles Mazurka
C:av. Pelle Gustafsson
%O:Sweden
R:Mazurka
Z:Bob Wyttenbach  8/12/02, from Fiddles & Feet 2001 tunebook
N:handwritten copy "appt. Tommy Runesson"
M:3/4
L:1/8
K:D bass
P:A
D,F, A,D CB,|A,D, F,2 TF,2|D,F, A,E DC|B,F,G,2 TG,2|E,E, E,F, G,A,|
C2C4|[1G,G,G,2TB,2|(A,D) A,G, TF,2:|[2G,B, A,G, F,D,|(C,E,)D,4||
P:B
K:A
A,,C,E,2E,2|(TF,E,) C,A,,E,,2|A,,C,E,2E,2|(TF,E,) D,B,,G,,2|A,,C,E,2E,2|(TF,E,) D,B,,G,,2|
(E,B,,) E,F, G,A,|B,2B,3(B,|[1D)DD2E,2|D2 TB,2A,2:|[2EEE2(E,2|A,2)A,4|]
% %%%%%%%%%%%% Rorospols %%%%%%%%%%%%% %
